X:36
T:Black Jack Grove
R:Reel
M:4/4
L:1/8
N:from Big Medicine, Too Old to be Controlled,
Yodel-Ay-Hee 043
N:transcribed by Bruce Thomson
K:A
|z4z2ef|:â€Aâ€=g^ga=ge2d2|cdef =gfef|
=g^ga=ge2d2|cdeg ageg|abage2d2|cdef
=gfef|â€Eâ€=geage2d2|[1â€³Aâ€edc2A2ef:|[2â€³Aâ€edc2A2AB||
|:â€Aâ€c2Ac BAG2|GABGE2AB|c2Ac
BAG2|â€Eâ€GABGâ€Aâ€A2AB|c2AcBAG2|
GABGE2ef|â€Eâ€=geage2d2|[1â€³Aâ€edc2A2AB:|[2â€³Aâ€edc2A4||

